icons/shellcheck.svg

<!--
  - The MIT License (MIT)
  -
  - Copyright (c) 2015-2024 Elior "Mallowigi" Boukhobza
  -
  - Permission is hereby granted, free of charge, to any person obtaining a copy
  - of this software and associated documentation files (the "Software"), to deal
  - in the Software without restriction, including without limitation the rights
  - to use, copy, modify, merge, publish, distribute, sublicense, and/or sell
  - copies of the Software, and to permit persons to whom the Software is
  - furnished to do so, subject to the following conditions:
  -
  - The above copyright notice and this permission notice shall be included in all
  - copies or substantial portions of the Software.
  -
  - THE SOFTWARE IS PROVIDED "AS IS", WITHOUT WARRANTY OF ANY KIND, EXPRESS OR
  - IMPLIED, INCLUDING BUT NOT LIMITED TO THE WARRANTIES OF MERCHANTABILITY,
  - FITNESS FOR A PARTICULAR PURPOSE AND NONINFRINGEMENT. IN NO EVENT SHALL THE
  - AUTHORS OR COPYRIGHT HOLDERS BE LIABLE FOR ANY CLAIM, DAMAGES OR OTHER
  - LIABILITY, WHETHER IN AN ACTION OF CONTRACT, TORT OR OTHERWISE, ARISING FROM,
  - OUT OF OR IN CONNECTION WITH THE SOFTWARE OR THE USE OR OTHER DEALINGS IN THE
  - SOFTWARE.
  -
  -->

<svg  version="1.1" xmlns="http://www.w3.org/2000/svg" viewBox="0 0 512 512" width="16px" height="16px">
  <path fill="#aaaaff" data-iconColor="Shellcheck"
        d="M471.8371277,249.529892c3.5368347,8.09935-3.6909485,14.2937164-8.6940613,4.5656738c-40.5220947-74.1316528-61.2557373-56.2070923-121.3110046-52.0621643l5.5910034-11.9861755C396.8644104,187.957077,427.3027954,164.9821777,471.8371277,249.529892z M504.8066101,216.605484c-5.5784607-15.3282776-29.993927-26.7101593-43.7282715-35.4556274c-18.3408813-34.622818-88.5769043-74.6628723-119.52948-63.7875748c2.3230591,8.6603622,3.7778015,17.6541519,4.2796631,26.8823471c52.6898499-10.4855957,87.2101135,7.5921173,126.8336792,61.6817322c2.4982605,3.4477692-0.0639648,10.493866-2.2644958,7.0383759c-32.5678711-47.0908356-70.3789062-75.4490509-124.3975525-58.711853c-0.3759155,19.2398071-8.6712036,37.3593597-16.6438599,53.8339233c6.1440125,34.3382416-2.6359863,79.8243561-17.3044128,128.7952118c60.473938-50.5745544,157.4357605-42.4148865,191.6793518,32.9364014C512.5201416,321.7244873,516.3444214,244.7548065,504.8066101,216.605484z M467.384613,315.2732544c-33.5862427-38.1520996-88.1340027-33.5794983-122.3135986-28.2032471c-6.8650208,0.8411865-2.7552185-8.1940308,4.1161194-11.7603149c22.6282349-5.1965027,71.5952148-13.9324646,118.8039551,28.7391968C474.2171326,314.8108521,470.8956299,315.1455078,467.384613,315.2732544z M480.9969788,299.4418945c-22.1083984-37.5334778-77.0385742-49.1667023-131.6158142-40.0145569c-2.4796143-1.6752625-3.6381531-4.1502533,2.179657-10.8482666c62.3572083-8.8834381,106.2726746-0.892746,131.2002258,39.6904907C486.5785217,299.0169067,485.4015808,301.802124,480.9969788,299.4418945z M497.8345642,389.1122437C463.5401001,283.5875549,341.54599,306.9519043,306.6153564,359.125824c-7.5828857,11.590271-10.8933716,21.5695801-10.5731506,30.1799316l6.1537476,43.2393188c10.0148926,23.0814514,63.2417908,51.2930908,88.4868164,51.5073853C474.6871948,475.0505066,503.3130188,429.3027344,497.8345642,389.1122437z M287.297821,374.2061768c16.4815063-49.3630676,29.0615234-104.8319702,27.04953-141.9041748c-14.9427795,23.26091-40.5254211,43.2254639-68.1793823,51.7178345c8.4984283,7.7947083,19.5379944,14.7770386,33.4459229,21.1544495c5.9960938,3.2427063,1.5316467,11.4526062-4.0928955,8.9261169c-17.2700195-7.9190674-30.5375366-16.8327332-40.329071-27.0940247c-14.2394867,2.9417114-51.3635406,1.046051-66.2319946-1.2711792c-17.4685974,24.4497375-19.9925537,34.1050415-38.7326202,59.59729l-16.7035675,28.4362488c6.2203217,19.9996643,11.850029,34.6369019,21.5527954,47.5908813c16.2483673,20.509552,70.5511627,52.280304,85.2685089,52.280304C240.2484741,473.4359131,270.436615,411.8460999,287.297821,374.2061768z M221.6089783,412.9273682c-23.3176727-18.0782166-64.2719727-32.3901978-56.2111511-57.912384c1.9032593-6.1448364,10.9787445-3.8965454,9.4765625,2.5758057c-5.2985077,16.4790649,26.3574371,27.9364319,52.3560944,47.2850342C232.4272156,408.905365,227.038269,416.4668579,221.6089783,412.9273682z M244.2182007,367.2044983l-43.6073761-35.8492737c-4.9446411-4.5536804,1.309967-11.5534058,6.2362061-7.5854797l43.6073761,35.8492737C255.2068939,363.8866882,249.7192841,371.16745,244.2182007,367.2044983z M14.9882059,133.2472382c9.9007959-2.9690857,13.6735144-17.9794769,15.8703413-34.8350449l-18.676775-1.0056C-0.0987148,97.2968445,4.770061,119.4262238,14.9882059,133.2472382z M36.9885139,168.342926c20.3293839-31.7771912,25.685936-54.7341232,15.9245529-68.3265457l-12.2346954-0.9415359c-2.2990189,18.1924973-6.4626999,36.6327057-20.2066383,42.6280823C26.0717564,150.2844696,31.5776577,159.1752625,36.9885139,168.342926z M52.7419968,237.8414764c2.8934631,16.662384,8.4254227,33.4473114,16.2136536,50.4836578l24.8721008-42.3423767C80.1443329,254.9141235,66.1781006,251.6515503,52.7419968,237.8414764z M49.0370178,220.7899628c7.5451965,11.3173218,19.2892609,23.7086792,32.3864288,18.4611816c4.5745392-1.8320007,8.9347534-5.5179291,12.9144287-10.7302399C67.7203751,192.09198,61.7330971,145.3160706,78.856575,102.4144058l-14.1622314-1.3707886c7.5649796,17.9784622,0.0894241,43.4773483-22.6491394,77.5193863C42.2588692,189.8800201,43.6327858,211.7527924,49.0370178,220.7899628z M145.8177032,44.5885849c-70.2459641,41.1772766-79.4742813,136.469574-27.7136002,191.889801L0,437.5403748l42.3357162,24.8680725l115.9588242-197.409668c78.4825134,34.861084,170.072525-23.388382,170.072525-113.4021301C328.3670654,56.7643661,226.7067566-2.8275874,145.8177032,44.5885849z M155.6598206,241.5794678c-67.8254623-39.8721771-67.8254623-140.0937042-0.000061-179.9658203s153.0675354,10.2386513,153.0675354,89.9828796S223.4852142,281.4515991,155.6598206,241.5794678z"/>
</svg>

<svg xmlns="http://www.w3.org/2000/svg" viewBox="0 0 512 512"><path fill="#aaf" d="M471.837 249.53c3.537 8.1-3.69 14.294-8.694 4.566-40.522-74.132-61.256-56.208-121.31-52.063l5.59-11.986c49.441-2.09 79.88-25.065 124.414 59.483m32.97-32.925c-5.579-15.328-29.994-26.71-43.729-35.455-18.34-34.623-88.577-74.663-119.53-63.788a131 131 0 0 1 4.28 26.883c52.69-10.486 87.21 7.592 126.834 61.681 2.498 3.448-.064 10.494-2.264 7.039-32.568-47.091-70.38-75.45-124.398-58.712-.376 19.24-8.671 37.36-16.644 53.834 6.144 34.338-2.636 79.824-17.304 128.795 60.474-50.575 157.436-42.415 191.68 32.936 8.788-48.094 12.612-125.063 1.075-153.213m-37.422 98.668c-33.587-38.152-88.134-33.58-122.314-28.203-6.865.841-2.755-8.194 4.116-11.76 22.628-5.197 71.595-13.933 118.804 28.739 6.226 10.762 2.905 11.097-.606 11.224m13.612-15.831c-22.108-37.534-77.039-49.167-131.616-40.015-2.48-1.675-3.638-4.15 2.18-10.848 62.357-8.883 106.272-.893 131.2 39.69 3.818 10.748 2.64 13.533-1.764 11.173m16.838 89.67c-34.295-105.524-156.289-82.16-191.22-29.986-7.583 11.59-10.893 21.57-10.573 30.18l6.154 43.24c10.015 23.08 63.242 51.292 88.487 51.506 84.004-9.001 112.63-54.75 107.152-94.94m-210.537-14.906c16.481-49.363 29.061-104.832 27.05-141.904-14.943 23.26-40.526 43.225-68.18 51.718 8.498 7.795 19.538 14.777 33.446 21.154 5.996 3.243 1.532 11.453-4.093 8.926-17.27-7.919-30.538-16.832-40.33-27.094-14.239 2.942-51.363 1.046-66.231-1.27-17.469 24.449-19.993 34.104-38.733 59.596l-16.703 28.437c6.22 20 11.85 34.637 21.553 47.59 16.248 20.51 70.55 52.28 85.268 52.28 19.903-.203 50.092-61.793 66.953-99.433m-65.689 38.721c-23.318-18.078-64.272-32.39-56.211-57.912 1.903-6.145 10.979-3.897 9.476 2.576-5.298 16.479 26.358 27.936 52.356 47.285 5.197 4.03-.192 11.59-5.621 8.051m22.61-45.723-43.608-35.849c-4.945-4.553 1.31-11.553 6.236-7.585l43.607 35.849c4.753 4.268-.735 11.548-6.236 7.585M14.988 133.247c9.9-2.969 13.673-17.98 15.87-34.835l-18.677-1.005c-12.28-.11-7.412 22.02 2.806 35.84m22 35.096c20.329-31.777 25.685-54.734 15.924-68.327l-12.235-.941c-2.299 18.192-6.462 36.633-20.206 42.628a697 697 0 0 1 16.517 26.64m15.753 69.498c2.893 16.663 8.425 33.448 16.214 50.484l24.872-42.342c-13.684 8.931-27.65 5.669-41.086-8.142m-3.705-17.051c7.545 11.317 19.29 23.709 32.386 18.461 4.575-1.832 8.935-5.518 12.915-10.73-26.618-36.429-32.605-83.205-15.481-126.107l-14.163-1.37c7.565 17.978.09 43.477-22.649 77.519.214 11.317 1.588 33.19 6.992 42.227m96.78-176.201c-70.245 41.177-79.474 136.47-27.713 191.89L0 437.54l42.336 24.868 115.959-197.41c78.482 34.862 170.072-23.388 170.072-113.401 0-94.833-101.66-154.425-182.55-107.008m9.843 196.99c-67.826-39.872-67.826-140.093 0-179.965s153.067 10.238 153.067 89.983-85.242 129.855-153.067 89.982" data-iconColor="Shellcheck"/></svg>
